X:325
T: WENN DIE NACHT MIT SUESSER RUH
N: B0382
O: Europa, Mitteleuropa, Deutschland
R: Liebes - Lied, Liebes - Lust
M: 4/4
L: 1/8
K: F
 | FAAcc3d | cBGBB2A2 |
c3AdcBA | A2G2z4 |
FAAcc3d | cBGBB2A2 |
c3AdcBA | A2G2z4 |
G3BA3c | GABcB2A2 |
d3dc2(3dcB | A2G2F2z2

@@@ Tune index: 2128
